X: 14
T:Ternberger Hochzeitsstckl #2
M:2/4
L:1/16
C:trad
S: Simon Wascher, Pichler/Fritz: "Wer tanzt nach meiner Pfeife"
K:G
d3c B2d2 |c2A2 A2G2 |d3c B2d2 |c2A2 A2G2 
|B4  A2B2 |c4  B2c2 |d4  c2B2 |A8   :|
|:A3B c2A2 |BABc d2B2 |A^GAB c2A2 |BABc d2B2 
|e4  d2c2 |d4  e2c2 |B2B2 AGAB|G8    :|
